X: 5
T: Mulqueen's
R: reel
M: 4/4
L: 1/8
K: Dmaj
| F2 EG FDDE | FGAG FDDE | F2 EG FDED | FABc dBAG |F2 EG FDDG | FDAG FDDE | F2 EG FDED | FABc d2 cd ||| e3 e- efed | cdef g2 fg |e3e- efed | cABc d2 cd |deee efed | cdef g2 fg | afff geee | dfec dBAG ||


Tune 66	Setting 25239

